X: 43261
T: Woman Of The House, The
R: reel
M: 4/4
K: Gmajor
|:DGBG (3cdc BA|GBdg egdB|GABG A2Bd|eA ~A2 eA ~A2|
DGBG (3cdc BA|GBdg egdB|GABG A2GA|B2 dc BG G2:|
|:gf (3efg fedf|ef (3gfe dcBA|GABG A2 Bd|eA ~A2 eA ~A2|
gf (3efg fedf|ef (3gfe dcBA|GABG A2GA|B2dc BG G2:|

